Desktop/project_createx/public/images/Careers/attach.svg

<svg width="24" height="24" viewBox="0 0 24 24" fill="none" xmlns="http://www.w3.org/2000/svg">
<g clip-path="url(#clip0_1835_2581)">
<path fill-rule="evenodd" clip-rule="evenodd" d="M18.4305 3.93473C16.6244 2.12856 13.696 2.12856 11.8898 3.93473L5.54807 10.2765C5.15754 10.667 4.52438 10.667 4.13385 10.2765C3.74333 9.88593 3.74333 9.25276 4.13385 8.86224L10.4756 2.52052C13.0628 -0.0667034 17.2575 -0.0667034 19.8447 2.52052C22.432 5.10774 22.432 9.30246 19.8447 11.8897L11.314 20.4205C9.45897 22.2755 6.45144 22.2755 4.59645 20.4205C2.74146 18.5655 2.74146 15.5579 4.59645 13.7029L4.60028 13.6991L4.60029 13.6991L11.0406 7.3282C11.0413 7.32749 11.042 7.32678 11.0427 7.32608C12.1409 6.2301 13.9254 6.14718 15.0718 7.29351C16.1945 8.41627 16.1945 10.2366 15.0718 11.3594L10.564 15.8672C10.1734 16.2577 9.54028 16.2577 9.14975 15.8672C8.75923 15.4767 8.75923 14.8435 9.14975 14.453L13.6576 9.94516C13.9993 9.60345 13.9993 9.04943 13.6576 8.70772C13.3402 8.39033 12.8213 8.37594 12.4548 8.74241L12.451 8.74624L12.451 8.74623L6.01066 15.1172C6.01006 15.1178 6.00946 15.1184 6.00885 15.119C4.93672 16.1931 4.93732 17.9329 6.01066 19.0062C7.0846 20.0802 8.82581 20.0802 9.89975 19.0062L18.4305 10.4755C20.2367 8.6693 20.2367 5.74091 18.4305 3.93473Z" fill="#7772F1"/>
</g>
<defs>
<clipPath id="clip0_1835_2581">
<rect width="24" height="24" fill="white"/>
</clipPath>
</defs>
</svg>

<svg xmlns="http://www.w3.org/2000/svg" width="24" height="24" fill="none"><g clip-path="url(#a)"><path fill="#7772F1" fill-rule="evenodd" d="M18.43 3.935a4.625 4.625 0 0 0-6.54 0l-6.342 6.342a1 1 0 0 1-1.414-1.415l6.342-6.341a6.625 6.625 0 1 1 9.369 9.369l-8.531 8.53a4.75 4.75 0 1 1-6.718-6.717l.004-.004 6.44-6.37.003-.003c1.098-1.096 2.882-1.179 4.029-.032a2.875 2.875 0 0 1 0 4.065l-4.508 4.508a1 1 0 0 1-1.414-1.414l4.508-4.508a.875.875 0 0 0 0-1.237c-.318-.318-.837-.332-1.203.034l-.004.004-6.44 6.371-.002.002a2.75 2.75 0 0 0 3.89 3.887l8.532-8.53a4.625 4.625 0 0 0 0-6.541" clip-rule="evenodd"/></g><defs><clipPath id="a"><path fill="#fff" d="M0 0h24v24H0z"/></clipPath></defs></svg>
